X: 2
T:Mary Claire
R:Reel
C:Jerry Holland
B:Jerry Holland's Collection of fiddle tunes
Z:added by Alf 
M:4/4
L:1/8
Q:1/4=200
K:Bb
(3edc|:B2FD B,DFD|EG,B,E {E}G2FE|DFBd f2=ef|gf=eg fcAc|
B/2B/2BFD B,DFD|EG,B,E G2FE|DFBd cBAc|B2BA B2:|
Bc|:dcBd cBAc|dBFD B,DFD|EGFE DFBd|cBAG F2Bc|
dcBd cBAc|[1 dBFD B,DFD|EGFE DFBd|cAFA B2Bc:|
|[2 BdFB DFB,D|EGFE DFBd|cAFA B2|]
